offer/images/shopzie/features-02.svg

<svg viewBox="0 0 150 122" xmlns="http://www.w3.org/2000/svg"><path d="m53.8 113.7 78.7-45.5c2.1-1.1 1.8-3.2-.6-4.6l-33.2-19.2a9.1 9.1 0 0 0 -8-.4l-78.7 45.5c-2 1.2-1.8 3.3.6 4.6l33.2 19.3c2.4 1.3 6 1.5 8 .3z" fill="#8e78ba"/><path d="m131.6 63.6-76.8 44.3c-2 1.2-5.6 1-8-.3l-32.9-19 76.8-44.3c2-1.2 5.6-1 8 .3z" fill="#876fb7"/><path d="m21.1 84.3h-.3" fill="#8e78ba"/><path d="m29.2 81.1a1.5 1.5 0 0 1 -1.3-.7 1.5 1.5 0 0 1 .6-2.1l58.2-33.6a1.5 1.5 0 0 1 2 .5 1.6 1.6 0 0 1 -.5 2.1l-58.2 33.6a1.2 1.2 0 0 1 -.8.2z" fill="#1676ee"/><path d="m53.8 104.3 78.7-45.5c2.1-1.2 1.8-3.3-.6-4.6l-33.2-19.3c-2.4-1.3-6-1.5-8-.3l-78.7 45.5c-2 1.1-1.8 3.2.6 4.6l33.2 19.2a9.1 9.1 0 0 0 8 .4z" fill="#8e78ba"/><path d="m131.6 54-76.8 44.3c-2 1.2-5.6 1-8-.4l-32.9-18.9 76.8-44.3c2-1.2 5.6-1 8 .3z" fill="#876fb7"/><path d="m21.1 74.8-.3.2" fill="#8e78ba"/><path d="m29.2 71.6a1.7 1.7 0 0 1 -1.3-.7 1.5 1.5 0 0 1 .6-2.1l58.2-33.6a1.5 1.5 0 0 1 2 .6 1.5 1.5 0 0 1 -.5 2l-58.2 33.6z" fill="#1676ee"/><path d="m53.8 94.7 78.7-45.4c2.1-1.2 1.8-3.3-.6-4.7l-33.2-19.2c-2.4-1.3-6-1.5-8-.3l-78.7 45.4c-2 1.2-1.8 3.3.6 4.7l33.2 19.2c2.4 1.4 6 1.6 8 .3z" fill="#8e78ba"/><path d="m131.6 44.5-76.8 44.3c-2 1.2-5.6 1-8-.3l-32.9-19 76.8-44.3a9.1 9.1 0 0 1 8 .4z" fill="#876fb7"/><path d="m20.8 67.1a1.7 1.7 0 0 1 -1.4-.9 1.6 1.6 0 0 1 .7-2l.3-.2a1.7 1.7 0 0 1 2.1.7 1.6 1.6 0 0 1 -.7 2l-.4.2z" fill="#1676ee"/><path d="m29.2 62.2a1.6 1.6 0 0 1 -1.3-.8 1.4 1.4 0 0 1 .6-2l58.2-33.6a1.5 1.5 0 0 1 2 .5 1.6 1.6 0 0 1 -.5 2.1l-58.2 33.6z" fill="#1676ee"/><path d="m132.5 39.9-78.7 45.5c-2 1.2-5.6 1-8-.4l-33.2-19.2c-2.4-1.3-2.6-3.5-.6-4.6l1.9-1.1 76.8-44.3c2-1.2 5.6-1 8 .3l32.9 19 .3.2c2.4 1.3 2.7 3.3.6 4.6z" fill="#8e78ba"/><path d="m131.6 35-76.8 44.3c-2 1.2-5.6 1-8-.3l-32.9-19 76.8-44.3c2-1.2 5.6-1 8 .3z" fill="#876fb7"/><path d="m20.8 57.6a1.6 1.6 0 0 1 -1.4-.8 1.6 1.6 0 0 1 .7-2l.3-.2a1.5 1.5 0 0 1 2.1.7 1.6 1.6 0 0 1 -.7 2h-.4a.7.7 0 0 1 -.6.3z" fill="#1676ee"/><path d="m29.2 52.7a1.7 1.7 0 0 1 -1.3-.7 1.5 1.5 0 0 1 .6-2.1l58.2-33.6a1.5 1.5 0 0 1 2 .6 1.5 1.5 0 0 1 -.5 2l-58.2 33.6z" fill="#1676ee"/><path d="m53.8 75.5 78.7-45.5c2.1-1.1 1.8-3.2-.6-4.6l-33.2-19.2a9.1 9.1 0 0 0 -8-.4l-78.7 45.5c-2 1.2-1.8 3.3.6 4.6l33.2 19.3c2.4 1.3 6 1.5 8 .3z" fill="#8e78ba"/><path d="m82.3 17.2-58.8 34c2.2 1.3 2.2 3.3 0 4.6l23 13.2a8.3 8.3 0 0 1 7.8 0l65.5-37.8c-2.2-1.2-2.2-3.3 0-4.5l-23-13.3a8.5 8.5 0 0 1 -7.9 0z" fill="#a293c8"/><path d="m82.3 48.1c-10 5.7-28-.6-26.3-8.9 1.2-6.1 15.3-8.9 24.8-3.3 6.1 3.4 7.1 8.9 1.5 12.2z" fill="#8e78ba"/><path d="m89 33a2 2 0 0 1 -1.8-1.1 2.2 2.2 0 0 1 .7-3l5.7-3.2a2.1 2.1 0 0 1 2.9.7 2.2 2.2 0 0 1 -.7 3l-5.7 3.3z" fill="#8e78ba"/><path d="m46.4 57.5a2.2 2.2 0 0 1 -1.1-4l5.3-3.1a2.2 2.2 0 0 1 3 .7 2.3 2.3 0 0 1 -.8 3l-5.3 3.1a1.4 1.4 0 0 1 -1.1.3z" fill="#8e78ba"/><path d="m136 69.5v27.3c-.8 6.7-33.4 6.7-33.8 0v-27.3c0-1.7 2-2.7 3.6-3.3l2.5-.7c9.7-2.7 27.7-.8 27.7 4z" fill="#fff"/><path d="m136 69.5v27.3c0 6.5-33.3 6.9-33.8 0v-27.3c0-1.7 2-2.7 3.6-3.3 10.5-3.9 30.2-1.7 30.2 3.3z" fill="#dbd8eb"/><path d="m136 74.7v2.4c-6.7 4.6-27.2 4.6-33.8 0v-2.4c1.1 1.9 7.3 4.1 16.8 4.1s16-2.2 17-4.1z" fill="#bad3f5"/><path d="m136 80.6v2.3c-6.7 4.6-27.2 4.6-33.8 0v-2.3c1.1 1.8 7.3 4 16.8 4s16-2.2 17-4z" fill="#bad3f5"/><path d="m136 86.4v2.3c-6.7 4.6-27.3 4.6-33.8 0v-2.4c1.1 1.9 7.4 4 16.8 4s16-2.1 17-3.9z" fill="#bad3f5"/><path d="m136 92.1v2.4c-6.6 4.5-27.2 4.5-33.8 0v-2.4c1.1 1.9 7.3 4.1 16.8 4.1s16-2.2 17-4.1z" fill="#bad3f5"/><ellipse cx="119.1" cy="69.3" fill="#a293c8" rx="16.9" ry="5.1"/><path d="m136 40.8v27.3c-.8 6.6-33.3 6.7-33.8 0v-27.3c0-1.7 2-2.7 3.6-3.3l2.5-.8c9.6-2.6 27.7-.8 27.7 4.1z" fill="#fff"/><path d="m136 40.8v29.1c0 1.8-3.7 3.2-5.5 3.7-10 2.8-28 .9-28.3-3.7v-29.1c0-1.7 2-2.7 3.6-3.3 10.5-3.9 30.2-1.7 30.2 3.3z" fill="#dbd8eb"/><g fill="#bad3f5"><path d="m136 46v2.3c-6.7 4.6-27.2 4.6-33.8 0v-2.3c1.1 1.8 7.3 4 16.8 4s16-2.2 17-4z"/><path d="m136 51.8v2.4c-6.7 4.5-27.2 4.5-33.8 0v-2.4c1.1 1.9 7.3 4.1 16.8 4.1s16-2.2 17-4.1z"/><path d="m136 57.6v2.4c-6.7 4.5-27.3 4.5-33.8 0v-2.5c1.1 1.9 7.4 4.1 16.8 4.1s16-2.1 17-4z"/><path d="m136 63.4v2.4c-6.6 4.6-27.2 4.6-33.8 0v-2.4c1.1 1.9 7.3 4.1 16.8 4.1s16-2.3 17-4.1z"/><path d="m136 68.8v2.3c-6.6 4.6-27.2 4.6-33.8 0v-2.3c1.1 1.8 7.3 4 16.8 4s16-2.3 17-4z"/></g><ellipse cx="119.1" cy="40.7" fill="#eae9f2" rx="16.9" ry="5.1"/><path d="m112.4 75.6v28.1c-.8 6.9-34.3 6.8-34.7 0v-28.1c0-1.7 2.1-2.8 3.7-3.4l2.6-.8c9.8-2.6 28.4-.8 28.4 4.2z" fill="#fff"/><path d="m112.4 75.6v28.1c0 .8-.8 1.5-1.5 2-7.3 5.1-32.9 3.7-33.2-2v-28.1c0-1.7 2.1-2.8 3.7-3.4 10.8-4 31-1.7 31 3.4z" fill="#dbd8eb"/><path d="m112.4 81v2.4c-6.9 4.8-27.9 4.8-34.7 0v-2.4c1.1 1.9 7.5 4.1 17.4 4.1s16.3-2.3 17.3-4.1z" fill="#bad3f5"/><path d="m112.4 87v2.4c-6.9 4.7-27.9 4.7-34.7 0v-2.4c1.1 1.9 7.5 4.2 17.4 4.2s16.3-2.4 17.3-4.2z" fill="#bad3f5"/><path d="m112.4 92.9v2.4c-6.9 4.7-28 4.7-34.7 0v-2.4c1.1 1.8 7.6 4.2 17.4 4.2s16.3-2.3 17.3-4.2z" fill="#bad3f5"/><path d="m112.4 98.9v2.4c-6.8 4.7-27.9 4.7-34.7 0v-2.4c1.1 1.9 7.5 4.1 17.4 4.1s16.3-2.3 17.3-4.1z" fill="#bad3f5"/><ellipse cx="95.1" cy="75.5" fill="#eae9f2" rx="17.4" ry="5.3"/></svg>

<svg id="Layer_1" data-name="Layer 1" xmlns="http://www.w3.org/2000/svg" viewBox="0 0 150 122"><defs><style>.cls-1{fill:#8e78ba;}.cls-2{fill:#876fb7;}.cls-3{fill:#1676ee;}.cls-4{fill:#a293c8;}.cls-5{fill:#fff;}.cls-6{fill:#dbd8eb;}.cls-7{fill:#bad3f5;}.cls-8{fill:#eae9f2;}</style></defs><title>icons</title><g id="Shape"><path class="cls-1" d="M53.8,113.7l78.7-45.5c2.1-1.1,1.8-3.2-.6-4.6L98.7,44.4a9.1,9.1,0,0,0-8-.4L12,89.5c-2,1.2-1.8,3.3.6,4.6l33.2,19.3C48.2,114.7,51.8,114.9,53.8,113.7Z"/></g><g id="Shape-2" data-name="Shape"><path class="cls-2" d="M131.6,63.6,54.8,107.9c-2,1.2-5.6,1-8-.3l-32.9-19L90.7,44.3c2-1.2,5.6-1,8,.3Z"/></g><g id="Shape-3" data-name="Shape"><path class="cls-1" d="M21.1,84.3h-.3"/></g><g id="Shape-4" data-name="Shape"><path class="cls-3" d="M29.2,81.1a1.5,1.5,0,0,1-1.3-.7,1.5,1.5,0,0,1,.6-2.1L86.7,44.7a1.5,1.5,0,0,1,2,.5,1.6,1.6,0,0,1-.5,2.1L30,80.9A1.2,1.2,0,0,1,29.2,81.1Z"/></g><g id="Shape-5" data-name="Shape"><path class="cls-1" d="M53.8,104.3l78.7-45.5c2.1-1.2,1.8-3.3-.6-4.6L98.7,34.9c-2.4-1.3-6-1.5-8-.3L12,80.1c-2,1.1-1.8,3.2.6,4.6l33.2,19.2A9.1,9.1,0,0,0,53.8,104.3Z"/></g><g id="Shape-6" data-name="Shape"><path class="cls-2" d="M131.6,54,54.8,98.3c-2,1.2-5.6,1-8-.4L13.9,79,90.7,34.7c2-1.2,5.6-1,8,.3Z"/></g><g id="Shape-7" data-name="Shape"><path class="cls-1" d="M21.1,74.8l-.3.2"/></g><g id="Shape-8" data-name="Shape"><path class="cls-3" d="M29.2,71.6a1.7,1.7,0,0,1-1.3-.7,1.5,1.5,0,0,1,.6-2.1L86.7,35.2a1.5,1.5,0,0,1,2,.6,1.5,1.5,0,0,1-.5,2L30,71.4Z"/></g><g id="Shape-9" data-name="Shape"><path class="cls-1" d="M53.8,94.7l78.7-45.4c2.1-1.2,1.8-3.3-.6-4.7L98.7,25.4c-2.4-1.3-6-1.5-8-.3L12,70.5c-2,1.2-1.8,3.3.6,4.7L45.8,94.4C48.2,95.8,51.8,96,53.8,94.7Z"/></g><g id="Shape-10" data-name="Shape"><path class="cls-2" d="M131.6,44.5,54.8,88.8c-2,1.2-5.6,1-8-.3l-32.9-19L90.7,25.2a9.1,9.1,0,0,1,8,.4Z"/></g><g id="Shape-11" data-name="Shape"><path class="cls-3" d="M20.8,67.1a1.7,1.7,0,0,1-1.4-.9,1.6,1.6,0,0,1,.7-2l.3-.2a1.7,1.7,0,0,1,2.1.7,1.6,1.6,0,0,1-.7,2l-.4.2Z"/></g><g id="Shape-12" data-name="Shape"><path class="cls-3" d="M29.2,62.2a1.6,1.6,0,0,1-1.3-.8,1.4,1.4,0,0,1,.6-2L86.7,25.8a1.5,1.5,0,0,1,2,.5,1.6,1.6,0,0,1-.5,2.1L30,62Z"/></g><g id="Shape-13" data-name="Shape"><path class="cls-1" d="M132.5,39.9,53.8,85.4c-2,1.2-5.6,1-8-.4L12.6,65.8c-2.4-1.3-2.6-3.5-.6-4.6l1.9-1.1L90.7,15.8c2-1.2,5.6-1,8,.3l32.9,19,.3.2C134.3,36.6,134.6,38.6,132.5,39.9Z"/></g><g id="Shape-14" data-name="Shape"><path class="cls-2" d="M131.6,35,54.8,79.3c-2,1.2-5.6,1-8-.3L13.9,60,90.7,15.7c2-1.2,5.6-1,8,.3Z"/></g><g id="Shape-15" data-name="Shape"><path class="cls-3" d="M20.8,57.6a1.6,1.6,0,0,1-1.4-.8,1.6,1.6,0,0,1,.7-2l.3-.2a1.5,1.5,0,0,1,2.1.7,1.6,1.6,0,0,1-.7,2h-.4A.7.7,0,0,1,20.8,57.6Z"/></g><g id="Shape-16" data-name="Shape"><path class="cls-3" d="M29.2,52.7a1.7,1.7,0,0,1-1.3-.7,1.5,1.5,0,0,1,.6-2.1L86.7,16.3a1.5,1.5,0,0,1,2,.6,1.5,1.5,0,0,1-.5,2L30,52.5Z"/></g><g id="Shape-17" data-name="Shape"><path class="cls-1" d="M53.8,75.5,132.5,30c2.1-1.1,1.8-3.2-.6-4.6L98.7,6.2a9.1,9.1,0,0,0-8-.4L12,51.3c-2,1.2-1.8,3.3.6,4.6L45.8,75.2C48.2,76.5,51.8,76.7,53.8,75.5Z"/></g><g id="Shape-18" data-name="Shape"><path class="cls-4" d="M82.3,17.2l-58.8,34c2.2,1.3,2.2,3.3,0,4.6L46.5,69a8.3,8.3,0,0,1,7.8,0l65.5-37.8c-2.2-1.2-2.2-3.3,0-4.5l-23-13.3a8.5,8.5,0,0,1-7.9,0Z"/></g><g id="Shape-19" data-name="Shape"><path class="cls-1" d="M82.3,48.1c-10,5.7-28-.6-26.3-8.9,1.2-6.1,15.3-8.9,24.8-3.3C86.9,39.3,87.9,44.8,82.3,48.1Z"/></g><g id="Shape-20" data-name="Shape"><path class="cls-1" d="M89,33a2,2,0,0,1-1.8-1.1,2.2,2.2,0,0,1,.7-3l5.7-3.2a2.1,2.1,0,0,1,2.9.7,2.2,2.2,0,0,1-.7,3l-5.7,3.3Z"/></g><g id="Shape-21" data-name="Shape"><path class="cls-1" d="M46.4,57.5a2.2,2.2,0,0,1-1.1-4l5.3-3.1a2.2,2.2,0,0,1,3,.7,2.3,2.3,0,0,1-.8,3l-5.3,3.1A1.4,1.4,0,0,1,46.4,57.5Z"/></g><g id="Shape-22" data-name="Shape"><path class="cls-5" d="M136,69.5V96.8c-.8,6.7-33.4,6.7-33.8,0V69.5c0-1.7,2-2.7,3.6-3.3l2.5-.7C118,62.8,136,64.7,136,69.5Z"/></g><g id="Shape-23" data-name="Shape"><path class="cls-6" d="M136,69.5V96.8c0,6.5-33.3,6.9-33.8,0V69.5c0-1.7,2-2.7,3.6-3.3C116.3,62.3,136,64.5,136,69.5Z"/></g><g id="Shape-24" data-name="Shape"><path class="cls-7" d="M136,74.7v2.4c-6.7,4.6-27.2,4.6-33.8,0V74.7c1.1,1.9,7.3,4.1,16.8,4.1S135,76.6,136,74.7Z"/></g><g id="Shape-25" data-name="Shape"><path class="cls-7" d="M136,80.6v2.3c-6.7,4.6-27.2,4.6-33.8,0V80.6c1.1,1.8,7.3,4,16.8,4S135,82.4,136,80.6Z"/></g><g id="Shape-26" data-name="Shape"><path class="cls-7" d="M136,86.4v2.3c-6.7,4.6-27.3,4.6-33.8,0V86.3c1.1,1.9,7.4,4,16.8,4S135,88.2,136,86.4Z"/></g><g id="Shape-27" data-name="Shape"><path class="cls-7" d="M136,92.1v2.4c-6.6,4.5-27.2,4.5-33.8,0V92.1c1.1,1.9,7.3,4.1,16.8,4.1S135,94,136,92.1Z"/></g><g id="Oval"><ellipse class="cls-4" cx="119.1" cy="69.3" rx="16.9" ry="5.1"/></g><g id="Shape-28" data-name="Shape"><path class="cls-5" d="M136,40.8V68.1c-.8,6.6-33.3,6.7-33.8,0V40.8c0-1.7,2-2.7,3.6-3.3l2.5-.8C117.9,34.1,136,35.9,136,40.8Z"/></g><g id="Shape-29" data-name="Shape"><path class="cls-6" d="M136,40.8V69.9c0,1.8-3.7,3.2-5.5,3.7-10,2.8-28,.9-28.3-3.7V40.8c0-1.7,2-2.7,3.6-3.3C116.3,33.6,136,35.8,136,40.8Z"/></g><g id="Shape-30" data-name="Shape"><path class="cls-7" d="M136,46v2.3c-6.7,4.6-27.2,4.6-33.8,0V46c1.1,1.8,7.3,4,16.8,4S135,47.8,136,46Z"/></g><g id="Shape-31" data-name="Shape"><path class="cls-7" d="M136,51.8v2.4c-6.7,4.5-27.2,4.5-33.8,0V51.8c1.1,1.9,7.3,4.1,16.8,4.1S135,53.7,136,51.8Z"/></g><g id="Shape-32" data-name="Shape"><path class="cls-7" d="M136,57.6V60c-6.7,4.5-27.3,4.5-33.8,0V57.5c1.1,1.9,7.4,4.1,16.8,4.1S135,59.5,136,57.6Z"/></g><g id="Shape-33" data-name="Shape"><path class="cls-7" d="M136,63.4v2.4c-6.6,4.6-27.2,4.6-33.8,0V63.4c1.1,1.9,7.3,4.1,16.8,4.1S135,65.2,136,63.4Z"/></g><g id="Shape-34" data-name="Shape"><path class="cls-7" d="M136,68.8v2.3c-6.6,4.6-27.2,4.6-33.8,0V68.8c1.1,1.8,7.3,4,16.8,4S135,70.5,136,68.8Z"/></g><g id="Oval-2" data-name="Oval"><ellipse class="cls-8" cx="119.1" cy="40.7" rx="16.9" ry="5.1"/></g><g id="Shape-35" data-name="Shape"><path class="cls-5" d="M112.4,75.6v28.1c-.8,6.9-34.3,6.8-34.7,0V75.6c0-1.7,2.1-2.8,3.7-3.4l2.6-.8C93.8,68.8,112.4,70.6,112.4,75.6Z"/></g><g id="Shape-36" data-name="Shape"><path class="cls-6" d="M112.4,75.6v28.1c0,.8-.8,1.5-1.5,2-7.3,5.1-32.9,3.7-33.2-2V75.6c0-1.7,2.1-2.8,3.7-3.4C92.2,68.2,112.4,70.5,112.4,75.6Z"/></g><g id="Shape-37" data-name="Shape"><path class="cls-7" d="M112.4,81v2.4c-6.9,4.8-27.9,4.8-34.7,0V81c1.1,1.9,7.5,4.1,17.4,4.1S111.4,82.8,112.4,81Z"/></g><g id="Shape-38" data-name="Shape"><path class="cls-7" d="M112.4,87v2.4c-6.9,4.7-27.9,4.7-34.7,0V87c1.1,1.9,7.5,4.2,17.4,4.2S111.4,88.8,112.4,87Z"/></g><g id="Shape-39" data-name="Shape"><path class="cls-7" d="M112.4,92.9v2.4c-6.9,4.7-28,4.7-34.7,0V92.9c1.1,1.8,7.6,4.2,17.4,4.2S111.4,94.8,112.4,92.9Z"/></g><g id="Shape-40" data-name="Shape"><path class="cls-7" d="M112.4,98.9v2.4c-6.8,4.7-27.9,4.7-34.7,0V98.9c1.1,1.9,7.5,4.1,17.4,4.1S111.4,100.7,112.4,98.9Z"/></g><g id="Oval-3" data-name="Oval"><ellipse class="cls-8" cx="95.1" cy="75.5" rx="17.4" ry="5.3"/></g></svg>
